src/assets/TwitchLogo.svg

<svg width="24" height="24" viewBox="0 0 24 24" fill="none" xmlns="http://www.w3.org/2000/svg">
<path d="M19.5 3H4.5C4.10218 3 3.72064 3.15804 3.43934 3.43934C3.15804 3.72064 3 4.10218 3 4.5V18C3 18.3978 3.15804 18.7794 3.43934 19.0607C3.72064 19.342 4.10218 19.5 4.5 19.5H6V22.5C5.99995 22.6426 6.04052 22.7822 6.11698 22.9025C6.19343 23.0228 6.30259 23.1189 6.43167 23.1794C6.56076 23.2399 6.70441 23.2623 6.8458 23.2441C6.98719 23.2259 7.12046 23.1678 7.23 23.0766L11.5219 19.5H15.4781C15.8293 19.5001 16.1693 19.377 16.4391 19.1522L20.46 15.8006C20.6293 15.6602 20.7655 15.4841 20.8589 15.2849C20.9522 15.0857 21.0004 14.8684 21 14.6484V4.5C21 4.10218 20.842 3.72064 20.5607 3.43934C20.2794 3.15804 19.8978 3 19.5 3ZM19.5 14.6484L15.4781 18H11.5219C11.1707 17.9999 10.8307 18.123 10.5609 18.3478L7.5 20.8988V18.75C7.5 18.5511 7.42098 18.3603 7.28033 18.2197C7.13968 18.079 6.94891 18 6.75 18H4.5V4.5H19.5V14.6484ZM15 12.75V8.25C15 8.05109 15.079 7.86032 15.2197 7.71967C15.3603 7.57902 15.5511 7.5 15.75 7.5C15.9489 7.5 16.1397 7.57902 16.2803 7.71967C16.421 7.86032 16.5 8.05109 16.5 8.25V12.75C16.5 12.9489 16.421 13.1397 16.2803 13.2803C16.1397 13.421 15.9489 13.5 15.75 13.5C15.5511 13.5 15.3603 13.421 15.2197 13.2803C15.079 13.1397 15 12.9489 15 12.75ZM10.5 12.75V8.25C10.5 8.05109 10.579 7.86032 10.7197 7.71967C10.8603 7.57902 11.0511 7.5 11.25 7.5C11.4489 7.5 11.6397 7.57902 11.7803 7.71967C11.921 7.86032 12 8.05109 12 8.25V12.75C12 12.9489 11.921 13.1397 11.7803 13.2803C11.6397 13.421 11.4489 13.5 11.25 13.5C11.0511 13.5 10.8603 13.421 10.7197 13.2803C10.579 13.1397 10.5 12.9489 10.5 12.75Z" fill="#100F0F"/>
</svg>

<svg xmlns="http://www.w3.org/2000/svg" width="24" height="24" fill="none"><path fill="#100F0F" d="M19.5 3h-15A1.5 1.5 0 0 0 3 4.5V18a1.5 1.5 0 0 0 1.5 1.5H6v3a.75.75 0 0 0 1.23.577l4.292-3.577h3.956a1.5 1.5 0 0 0 .961-.348l4.021-3.351a1.494 1.494 0 0 0 .54-1.153V4.5A1.5 1.5 0 0 0 19.5 3Zm0 11.648L15.478 18h-3.956a1.5 1.5 0 0 0-.961.348L7.5 20.898V18.75a.75.75 0 0 0-.75-.75H4.5V4.5h15v10.148ZM15 12.75v-4.5a.75.75 0 1 1 1.5 0v4.5a.75.75 0 1 1-1.5 0Zm-4.5 0v-4.5a.75.75 0 1 1 1.5 0v4.5a.75.75 0 1 1-1.5 0Z"/></svg>
